!!!!SEGMENT: pl-wtm--r-1340_stefani-jozef--wielki-wieslaw-mazur.krn
!!!cenid: 18xx:2403
!!!COM: Stefani, Józef
!!!COM-rismid: pe30024097
!!!CDT: 1800/04/16-1876/03/19
!!!CNT: Polish
!!!OTL: Wielki Wiesław Mazur
!!!PDT:
!!!AGN: Secular; Mazurka
!!!SMS-siglum: PL-Wtm
!!!SMS-shelfmark: R 1340
!!!SMS-shelfwork: W
!!!SMS-variant:
!!!SMS-altvar:
!!!NIFC-rismid: 1001119391
!!!URL-scan: http://repozytorium.nifc.pl/skany/pl-wtm-nut--r1340
!!!ONB-nifc:
**kern	**kern	**dynam
*part2	*part1	*part1
*staff2	*staff1	*
*I"fortepian	*I"fortepian	*
*clefF4	*clefG2	*
*k[f#]	*k[f#]	*
*M3/8	*M3/8	*
=1	=1	=1
*>A	*>A	*
*all\right	*all\right	*
!	!LO:TX:t=P:problem:forma w źródle nie jest oznaczona poprawnie, nie wiadomo jak rozpisać	!
!	!LO:TX:a:t=Wiesław Wielki Mazur\nnapisany do Baletu\nWiesław i Wanda\nKompozycyj na Orkiestrę\ni przekład na\nFortepiano.\nJózefa Stefaniego	!
!	!LO:TX:a:i:t=Introducione.	!LO:DY:rj
16.E-X\LL	16.ee-X\LL	f
32D\K	32dd\K	.
16C#X\	16cc#X\	.
16D\	16dd\	.
16E-\	16ee-\	.
16D\JJ	16dd\JJ	.
=2	=2	=2
16C#X\LL	16cc#X\LL	.
16D\	16dd\	.
16E-X\	16ee-X\	.
16D\	16dd\	.
16C#\	16cc#\	.
16D\JJ	16dd\JJ	.
!!LO:LB:g=original
=3	=3	=3
16.En\LL	16.een\LL	.
32D\K	32dd\K	.
16C#X\	16cc#X\	.
16D\	16dd\	.
16E\	16ee\	.
16D\JJ	16dd\JJ	.
=4	=4	=4
16C#X\LL	16cc#X\LL	.
16D\	16dd\	.
16E\	16ee\	.
16D\	16dd\	.
16cn\	16cccn\	.
!LO:TX:a:t=attaca Mazur	!	!
16A\JJ	16aa\JJ	.
!!LO:PB:g=original
=5|!	=5|!	=5|!
!	!LO:TX:a:i:t=Mazur.	!
8GG\L 8G	8b'^<\L 8dd 8gg	f
8BB\ 8B	8b'^<\ 8dd 8ff#	.
8C\J 8c	8g'^<\J 8cc 8ee	.
=6	=6	=6
8.D\L 8.d	16.b\LL 16.dd	.
.	32cc\K 32ee	.
.	16.b\ 16.dd	.
16F#\K	.	.
.	32a\JK 32cc	.
8G\J	8g\J 8b	.
=7	=7	=7
.	(8qbb/	.
8DD/ 8D	16.aa\LL)	.
.	32dd\JJk	.
8D\ 8A 8cL	8ff#\L	.
8D\ 8A 8cJ	8aa\J	.
=8	=8	=8
8GG/	(>16ccc\LL	.
.	16bb\JJ)	.
4D\ 4G 4B	4gg\	.
=9	=9	=9
8GG\L 8G	8b\L 8dd 8gg	.
8BB\ 8B	8b\ 8dd 8ff#	.
8C\J 8c	8g\J 8cc 8ee	.
!!LO:LB:g=original
=10	=10	=10
8.D\L 8.d	16.b\LL 16.dd	.
.	32cc\K 32ee	.
.	16.b\ 16.dd	.
16F#\K	.	.
.	32a\JK 32cc	.
8G\J	8g\J 8b	.
=11	=11	=11
*^	*	*
4F#/	16.F#\L	16dd#X/LL	.
.	.	16f#/JJ	.
.	32B\JK 32d#X	.	.
.	8B\ 8d#L	8b/L	.
8ryy	8B\J 8d#	8dd#/J	.
*v	*v	*	*
=12	=12	=12
16F#\ 16A#X 16e	24cc#X'\LL	.
.	(24ee\	.
16r	.	.
.	24dd#X\JJ	.
4B\ 4d#X	4b\)	.
=13	=13	=13
!LO:TX:t=P:problem:trzeci łuk	!	!
!LO:S:s=2:note:problem:note-level slur	!	!
!LO:S:s=3:note:problem:note-level slur	!	!
(8F#\L (8A#X (8e	24cc#X'\LL	.
.	(24ee\	.
.	24dd#X\JJ	.
8B\)) 8d#X)	8b\L)	.
8B'\J 8d#	8ff#t\J	.
=14	=14	=14
16F#\ 16A#X 16e	24cc#X'\LL	.
.	(24ee\	.
16r	.	.
.	24dd#X\JJ	.
4B\ 4d#X	4b\)	.
!!LO:LB:g=original
=15	=15	=15
!LO:TX:t=P:problem:trzeci łuk	!	!
!LO:S:s=2:note:problem:note-level slur	!	!
!LO:S:s=3:note:problem:note-level slur	!	!
(8F#\L (8A#X (8e	24cc#X'\LL	.
.	(24ee\	.
.	24dd#X\JJ	.
8B\)) 8d#X)	8b\L)	.
8B\J 8d#	8ff#t\J	.
=16	=16	=16
16F#\ 16A#X 16e	24cc#X'\LL	.
.	(24ee\	.
16r	.	.
.	24dd#X\JJ	.
4B\ 4d#X	4b\)	.
=17	=17	=17
*^	*	*
4.D#X/	8D#\L	24b'\LL	.
.	.	(24aa\	.
.	.	24gg\JJ	.
.	8F#\ 8A 8B	8ff#\L)	.
.	8F#\J 8A 8B	8b'^<\J 8bb	.
=18	=18	=18	=18
4.E/	8E\L	24b'\LL	.
.	.	(24gg\	.
.	.	24ff#\JJ	.
.	8G\ 8B	8ee\L)	.
.	8G\J 8B	8b'\J 8bb	.
=19	=19	=19	=19
4.C#X/	8C#\L	24b'\LL	.
.	.	(24gg\	.
.	.	24ff#\JJ	.
.	8E\ 8G 8A	8ee\L)	.
.	8E\J 8G 8A	8a'\J 8aa	.
!!LO:LB:g=original
=20	=20	=20	=20
4.D/	8D\L	24a'\LL	.
.	.	(24ff#\	.
.	.	24ee\JJ	.
.	8F#\ 8A	8dd\L)	.
.	8F#\J 8A	8dd\J 8ddd	.
*v	*v	*	*
=21	=21	=21
8DD/ 8D	16cc\LL	.
.	16dd\	.
8D\L 8F# 8A 8c	16ee\	.
.	16ff#\	.
8D\J 8F# 8A 8c	16gg\	.
.	16aa\JJ	.
=22	=22	=22
8GG/	16bb\LL	.
.	16ccc\JJ	.
8D\L 8G 8B	8ddd\L	.
8D\J 8G 8B	8gg\J	.
=23	=23	=23
8DD/ 8D	16aa\LL	.
.	16bb\JJ	.
8D\L 8A 8c	8ccc\L	.
8D\J 8A 8c	8ff#\J	.
=24	=24	=24
8GG/	(16aa\LL	.
.	16gg\JJ)	.
*	*Xtuplet	*
8D\L 8G 8B	(24gg\LL	.
.	24ff#\)	.
.	24ee'\JJ	.
8D\J 8G 8B	8dd\	.
!!LO:LB:g=original
=25	=25	=25
8DD/ 8D	16cc\LL	.
.	16dd\	.
8D\L 8F# 8A 8c	16ee\	.
.	16ff#\	.
8D\J 8F# 8A 8c	16gg\	.
.	16aa\JJ	.
=26	=26	=26
8GG/	16bb\LL	.
.	16ccc\JJ	.
8D\L 8G 8B	8ddd\L	.
8D\J 8G 8B	8gg\J	.
=27	=27	=27
!	!LO:S:s=2:note:problem:note-level slur	!
8CC/L 8C	(>8ccc\L (>8eee	.
16DD/Jk 16D	16bb\Jk) 16ddd)	.
16r	16r	.
8D\ 8A 8c	8ff#t\	.
.	(16qqee/LL	.
.	16qqff#/JJ)	.
=28	=28	=28
8G\ 8B	8gg\	.
4G\ 4B	4g/	.
=29||	=29||	=29||
16.BB\LL 16.F# 16.B	16.f#/LL 16.a 16.dd#X	.
32BB\JJk 32F# 32B	32f#/JJk 32a 32dd#	.
8BB\ 8F# 8B	8f#/ 8a 8dd#	.
.	(8qgg/	.
8r	8bb\)	.
!!LO:LB:g=original
=30	=30	=30
16.E\LL 16.G 16.B	16.e/LL 16.g 16.ee	.
32E\JJk 32G 32B	32e/JJk 32g 32ee	.
8E\ 8G 8B	8e/ 8g 8ee	.
.	(8qgg/	.
8r	8bb\)	.
=31	=31	=31
16.AA/LL 16.E 16.A	16.e/LL 16.g 16.a 16.cc#X	.
32AA/JJk 32E 32A	32e/JJk 32g 32a 32cc#	.
8AA/ 8E 8A	8e/ 8g 8a 8cc#	.
.	(8qee/	.
8r	8aa\)	.
=32	=32	=32
16.D\LL 16.F# 16.A	16.d/LL 16.f# 16.a 16.dd	.
32D\JJk 32F# 32A	32d/JJk 32f# 32a 32dd	.
8D\ 8F# 8A	8d/ 8f# 8a 8dd	.
.	(8qff#/	.
8r	8aa\)	.
=33	=33	=33
!	!	!LO:DY:rj
8AA/	16aa\LL	f
.	16gg\JJ	.
8C#X\L 8E 8G 8A	8ee\L	.
8C#\J 8E 8G 8A	16bb\L	.
.	16aa\JJ	.
!!LO:PB:g=original
=34	=34	=34
*^	*	*
4.D/	8D\L	16ff#'\LL	.
.	.	16aa'\JJ	.
.	8F#\ 8A	8ddd'\L	.
.	8F#\J 8A	8ff#'\J	.
*v	*v	*	*
=35	=35	=35
8AA/	16aa'\LL	.
.	16gg'\JJ	.
8C#X\L 8E 8G 8A	8ee'\L	.
8C#\J 8E 8G 8A	(16bb\L	.
.	16aa\JJ)	.
=36	=36	=36
*^	*	*
4.D/	8D\L	16ff#\LL	.
.	.	16a\JJ	.
.	8F#\ 8A	8dd\L	.
.	8F#\J 8A	8ff#\J	.
*v	*v	*	*
=37	=37	=37
8AA/	16aa'\LL	.
.	16gg'\JJ	.
8C#X\L 8E 8G 8A	8ee'\L	.
8C#\J 8E 8G 8A	(16bb\L	.
.	16aa\JJ)	.
=38	=38	=38
*^	*	*
4.D/	8D\L	16ff#\LL	.
.	.	16aa\JJ	.
.	8F#\ 8A	8ddd\L	.
.	8F#\J 8A	8ff#\J	.
*v	*v	*	*
=39	=39	=39
8AA/	(16aa\LL	.
.	16gg\JJ)	.
8C#X\L 8E 8G 8A	8ee'\L	.
8C#\J 8E 8G 8A	(16gg\L	.
.	16ff#\JJ)	.
!!LO:LB:g=original
=40	=40	=40
!	!LO:TX:t=P:problem:mixed beam	!
8D\L 8F# 8A	8dd\L	.
8D\J 8F# 8A	8d/J	.
8r	8r	.
=41	=41	=41
16.FF#/LL 16.F#	16.A#X/LL 16.f#	.
32FF#/JJk 32F#	32A#/JJk 32f#	.
8FF#/L 8F#	8A#/L 8f#	.
8FF#/J 8F#	8A#/J 8c#X	.
=42	=42	=42
*rep	*rep	*
16.FF#/LL 16.F#	16.A#X/LL 16.f#	.
32FF#/JJk 32F#	32A#/JJk 32f#	.
8FF#/L 8F#	8A#/L 8f#	.
8FF#/J 8F#	8A#/J 8c#X	.
*Xrep	*Xrep	*
=43	=43	=43
*rep	*	*
16.FF#/LL 16.F#	16.A#X/LL 16.f#	.
32FF#/JJk 32F#	32A#/JJk 32f#	.
8FF#/L 8F#	8A#/L 8f#	.
8FF#/J 8F#	8A#/J 8f#	.
*Xrep	*	*
=44	=44	=44
*tremolo	*tremolo	*
8FF#/L 8F#	8A#X/L 8f#	.
8FF#/ 8F#	8A#/ 8f#	.
8FF#/J 8F#	8A#/J 8f#	.
*Xtremolo	*Xtremolo	*
=45!|:	=45!|:	=45!|:
*>B	*>B	*
8EE/ 8E	16g'\LL 16gg'	.
.	16a'\ 16aa'	.
8E\L 8G 8A	16b'\ 16bb'	.
.	16cc#X'\ 16ccc#X'	.
8AA\J 8C#X 8G	16dd'\ 16ddd'	.
.	16ee'\JJ 16eee'	.
!!LO:LB:g=original
=46	=46	=46
8DD/ 8D	16ff#\LL 16fff#	.
.	16gg\JJ 16ggg	.
8AA/L 8D 8F#	8aa\L 8aaa	.
8AA/J 8D 8F#	8dd\J 8ddd	.
=47	=47	=47
8AAA/ 8AA	16ee\LL 16eee	.
.	16ff#\JJ 16fff#	.
8AA\L 8E 8G	8gg\L 8ggg	.
8AA\J 8E 8G	8cc#X\J 8ccc#X	.
=48	=48	=48
8DD/ 8D	(16ee\LL	.
.	16dd\JJ)	.
8AA/L 8D 8F#	(24dd\LL	.
.	24cc#X\)	.
.	24b'\JJ	.
8AA/J 8D 8F#	8a/	.
=49	=49	=49
8EE/ 8E	16g\LL 16gg	.
.	16a\ 16aa	.
8E\L 8G 8A	16b\ 16bb	.
.	16cc#X\ 16ccc#X	.
8AA\J 8C#X 8G	16dd\ 16ddd	.
.	16ee\JJ 16eee	.
=50	=50	=50
8DD/ 8D	16ff#\LL 16fff#	.
.	16gg\JJ 16ggg	.
8D\L 8F# 8A	8aa\L 8aaa	.
8D\J 8F# 8A	8dd\J 8ddd	.
!!LO:LB:g=original
=51	=51	=51
8GG/L 8G	8dd\L 8gg 8bb	.
8AA/J 8A	8dd\J 8ff# 8aa	.
8AA/ 8E 8G	8ccc#Xt\	.
=52	=52	=52
8D\ 8F#	8ddd\	.
4D\ 4F# 4A	4d/	.
=53:|!	=53:|!	=53:|!
*>C	*>C	*
!	!	!LO:DY:rj
8GG\L 8G	8b^<\L 8dd 8gg	f
8BB\ 8B	8b^<\ 8dd 8ff#	.
8C\J 8c	8g^<\J 8cc 8ee	.
=54	=54	=54
8.D\L 8.d	16.b\LL 16.dd	.
.	32cc\K 32ee	.
.	16b\ 16dd	.
16F#\KJ	16a\JJ 16cc	.
8G\	8g/ 8b	.
=55	=55	=55
.	(8qbb/	.
8DD/ 8D	16.aa\LL)	.
.	32dd\JJk	.
8D\L 8A 8c	8ff#\L	.
8D\J 8A 8c	8aa\J	.
=56	=56	=56
8GG/	(16ccc\LL	.
.	16bb\JJ)	.
4D\ 4G 4B	4gg\	.
!!LO:LB:g=original
=57	=57	=57
8GG\L 8G	8b^<\L 8dd 8gg	.
8BB\ 8B	8b^<\ 8dd 8ff#	.
8C\J 8c	8g^<\J 8cc 8ee	.
=58	=58	=58
8.D\L 8.d	16.b\LL 16.dd	.
.	32cc\K 32ee	.
.	16b\ 16dd	.
16F#\K	16a\J 16cc	.
8G\J	8g\J 8b	.
=59	=59	=59
*^	*	*
4F#/	16.F#\LL	16dd#X/LL	.
.	.	16f#/JJ	.
.	32B\JJK 32d#X	.	.
.	8B\ 8d#L	8b/L	.
8ryy	8B\J 8d#	8dd#/J	.
*v	*v	*	*
=60	=60	=60
16F#\ 16A#X 16e	24cc#X'\LL	.
.	(24ee\	.
16r	.	.
.	24dd#X\JJ	.
4B\ 4d#X	4b\)	.
=61	=61	=61
!LO:TX:t=P:problem:trzeci łuk	!	!
!LO:S:s=2:note:problem:note-level slur	!	!
!LO:S:s=3:note:problem:note-level slur	!	!
(8F#\L (8A#X (8e	24cc#X'\LL	.
.	(24ee\	.
.	24dd#X\JJ	.
8B\)) 8d#X)	8b\L)	.
8B\J 8d#	8ff#t\J	.
=62	=62	=62
16F#\ 16A#X 16e	24cc#X'\LL	.
.	(24ee\	.
16r	.	.
.	24dd#X\JJ	.
4B\ 4d#X	4b\)	.
!!LO:LB:g=original
=63	=63	=63
!LO:TX:t=P:problem:trzeci łuk	!	!
!LO:S:s=2:note:problem:note-level slur	!	!
!LO:S:s=3:note:problem:note-level slur	!	!
(8F#\L (8A#X (8e	24cc#X'\LL	.
.	(24ee\	.
.	24dd#X\JJ	.
8B\)) 8d#X)	8b\L)	.
8B\J 8d#	8ff#t\J	.
=64	=64	=64
16F#\ 16A#X 16e	24cc#X'\LL	.
.	(24ee\	.
16r	.	.
.	24dd#X\JJ	.
4B\ 4d#X	4b\)	.
=65	=65	=65
*^	*	*
4.D#X/	8D#\L	24b'\LL	.
.	.	(24aa\	.
.	.	24gg\JJ	.
.	8F#\ 8A 8B	8ff#\L)	.
.	8F#\J 8A 8B	8b'\J 8bb	.
=66	=66	=66	=66
4.E/	8E\L	24b'\LL	.
.	.	(24gg\	.
.	.	24ff#\JJ	.
.	8G\ 8B	8ee\L)	.
.	8G\J 8B	8b'\J 8bb	.
=67	=67	=67	=67
4.C#X/	8C#\L	24b'\LL	.
.	.	(24gg\	.
.	.	24ff#\JJ	.
.	8E\ 8G 8A	8ee\L)	.
.	8E\J 8G 8A	8a'\J 8aa	.
=68	=68	=68	=68
4.D/	8D\L	24a'\LL	.
.	.	(24ff#\	.
.	.	24ee\JJ	.
.	8F#\ 8A	8dd\L)	.
.	8F#\J 8A	8dd'\J 8ddd	.
*v	*v	*	*
!!LO:PB:g=original
=69	=69	=69
8DD/ 8D	16cc\LL	.
.	16dd\	.
8D\L 8F# 8A 8c	16ee\	.
.	16ff#\	.
8D\J 8F# 8A 8c	16gg\	.
.	16aa\JJ	.
=70	=70	=70
8GG/	16bb\LL	.
.	16ccc\JJ	.
8D\L 8G 8B	8ddd\L	.
8D\J 8G 8B	8gg\J	.
=71	=71	=71
8DD/ 8D	16aa\LL	.
.	16bb\JJ	.
8D\L 8A 8c	8ccc\L	.
8D\J 8A 8c	8ff#\J	.
=72	=72	=72
8GG/	(16aa\LL	.
.	16gg\JJ)	.
*	*tuplet	*
!	!LO:TX:t=P:problem:klamra łukowa	!
!	!LO:TUP:a	!
8D\L 8G 8B	24gg\LL	.
.	24ff#\	.
.	24ee\JJ	.
8D\J 8G 8B	8dd\	.
=73	=73	=73
8DD/ 8D	16cc\LL	.
.	16dd\	.
8D\L 8F# 8A 8c	16ee\	.
.	16ff#\	.
8D\J 8F# 8A 8c	16gg\	.
.	16aa\JJ	.
!!LO:LB:g=original
=74	=74	=74
8GG/	16bb\LL	.
.	16ccc\JJ	.
8D\L 8G 8B	8ddd\L	.
8D\J 8G 8B	8gg\J	.
=75	=75	=75
!	!	!LO:DY:rj
8CC/L 8C	(8ccc^<\L 8eee	f
16DD/Jk 16D	16bb\Jk) 16ddd	.
16r	16r	.
8D\ 8A 8c	8ff#t\	.
.	(16qqee/LL	.
.	16qqff#/JJ)	.
=76	=76	=76
8G\ 8B	8gg\	.
!	!LO:TX:t=P:problem:znak segno na końcu taktu	!
!	!LO:TX:t=P:problem:znak segno na kresce	!
!	!LO:TX:t=[segno]	!
4G\ 4B	4g/	.
=77|!	=77|!	=77|!
*>D	*>D	*
*k[]	*k[]	*
*	*	*
8CC/ 8C	16.r	p
!	!LO:N:vis=16	!
!	!LO:TX:a:t=Trio.	!
.	32G/ 32c 32e	.
8r	8G/L 8c 8e	.
8CC/ 8C	8F#X^/J 8A 8c 8d#X	.
=78	=78	=78
*rep	*rep	*
8CC/ 8C	16.r	.
!	!LO:N:vis=16	!
.	32G/ 32c 32e	.
8r	8G/L 8c 8e	.
8CC/ 8C	8F#X^/J 8A 8c 8d#X	.
*Xrep	*Xrep	*
!!LO:LB:g=original
=79	=79	=79
8CC/ 8C	16.r	.
!	!LO:N:vis=16	!
.	32G/ 32c 32e	.
8r	8G/ 8c 8e	.
8C\ 8E 8G 8c	(16g/LL	.
.	16cc/JJ)	.
=80	=80	=80
!	!LO:TX:t=P:problem:klamra łukowa	!
!	!LO:TUP:a	!
8G\ 8B 8d	24dd\LL	sf
.	24ee\	.
.	24ff\JJ	.
4c\ 4e	4ee\	.
=81	=81	=81
8GG/ 8G	16.B/LL 16.d	.
.	32B/JJk 32d	.
8r	8B/L 8d	.
8GG/ 8G	8A#X/J 8c#X 8e	.
=82	=82	=82
*rep	*rep	*
8GG/ 8G	16.B/LL 16.d	.
.	32B/JJk 32d	.
8r	8B/L 8d	.
8GG/ 8G	8A#X/J 8c#X 8e	.
*Xrep	*Xrep	*
=83	=83	=83
8GG/ 8G	16.B/LL 16.d	.
.	32B/JJk 32d	.
8r	8B/ 8d	.
8G\ 8B	(16d/LL	.
.	16g/JJ)	.
=84	=84	=84
!	!LO:TX:t=P:problem:klamra łukowa	!
!	!LO:TUP:b	!
8D\ 8F#X 8c	24b/LL	.
.	24a/	.
.	24dd/JJ	.
4G\ 4B	4g/	.
!!LO:LB:g=original
=85	=85	=85
*	*Xtuplet	*
!	!	!LO:DY:rj
8GG/ 8G	(24f#X/LL	f
.	24g/)	.
.	24b'/JJ	.
8G\L 8d 8f	8b\L 8dd	.
8G\J 8d 8f	8dd\J 8ffn	.
=86	=86	=86
8C/	(16ff\LL 16aa	.
.	16ee\JJ 16gg	.
8G\ 8c 8e	8cc\) 8ee	.
8C\ 8G 8c	8cc\ 8ee 8ccc	.
=87	=87	=87
!	!	!LO:DY:rj
8GG/ 8G	(16ee\LL 16eee	p
.	16dd\JJ) 16ddd	.
8G\L 8B 8f	8g\L 8gg	.
8G\J 8B 8f	8dd\J 8ddd	.
=88	=88	=88
8C/	16ff\LL 16fff	.
.	16ee\JJ 16eee	.
8G\L 8c 8e	4cc\ 4ccc	.
8G\J 8c 8e	.	.
=89	=89	=89
!	!	!
8GG/ 8G	(24f#X/LL	f
.	24g/)	.
.	24b'/JJ	.
8G\L 8d 8f	8b\L 8dd	.
8G\J 8d 8f	8dd\J 8ffn	.
!!LO:LB:g=original
=90	=90	=90
8C\ 8c	(16ff\LL 16aa	.
.	16ee\JJ 16gg	.
8G\ 8c 8e	8cc\) 8ee	.
8F#X\ 8A 8c 8e-X	8cc\ 8ee-X 8ccc	.
=91	=91	=91
*tremolo	*	*
8G\L 8c 8en	24cc'\LL 24een 24gg	.
.	(24eee\	.
.	24ddd\JJ	.
8G\ 8c 8e	8ccc\L)	.
8G\J 8c 8e	8ee\J	.
*Xtremolo	*	*
=92	=92	=92
.	(8qgg/	.
8G\ 8B 8f	16.ff\LL)	.
.	32dd\JJk	.
8c\ 8e	8cc\	.
8r	8r	.
=93||	=93||	=93||
!	!	!LO:DY:rj
8DD/ 8D	(8.d/L	f
8D\L 8F#X 8A 8c	.	.
.	16f#X/L	.
8D\J 8F# 8A 8c	16a/	.
.	16cc/JJ)	.
=94	=94	=94
8GG/	(16cc\LL	.
.	16b\JJ)	.
8D\ 8G 8B	8g/	.
8GG/ 8G	8g\ 8b 8gg	sf
!!LO:LB:g=original
=95	=95	=95
8FF#X/L 8F#X	(8.d#X/L	p
8FF#/ 8BB 8D#X 8F#	.	.
.	16f#X/L	.
8FF#/J 8BB 8D# 8F#	16b/	.
.	16dd#X/JJ)	.
=96	=96	=96
*	*tuplet	*
!	!LO:TX:t=P:problem:klamra łukowa	!
!	!LO:TUP:a	!
16FF#X/ 16AA#X 16E	24cc#X\LL	.
.	24dd#X\	.
16r	.	.
.	24cc#\JJ	.
4BB/ 4D#X	4b\	.
=97	=97	=97
!	!	!LO:DY:rj
8DDn/ 8Dn	(8.dn/L	f
8D\L 8F#X 8A 8c	.	.
.	16f#X/L	.
8D\J 8F# 8A 8c	16a/	.
.	16cc/JJ)	.
=98	=98	=98
8GG/	(16cc\LL	.
.	16b\JJ)	.
8D\ 8G 8B	8g/	.
8GG/ 8G	8g\ 8b 8gg	.
=99	=99	=99
8CC/ 8C	(16ff#X\LL	.
.	16ee\)	.
8D\L 8F#X 8c	16dd'\	.
.	16cc'\	.
8D\J 8F# 8c	16b'\	.
.	16a'\JJ	.
=100	=100	=100
8G\ 8B	8g/	.
8GG/ 8G	8g\ 8b 8gg	.
8r	8r	.
!!LO:PB:g=original
=101!|:	=101!|:	=101!|:
*>E	*>E	*
*k[b-e-a-]	*k[b-e-a-]	*
!LO:TX:t=P:problem:kolejność znaków Fn BB- E- AA-	!LO:TX:t=P:problem:kolejność znaków ffn b- ee- a-	!
(16E-\LL	(8.g\L 8.b-	.
16B-\	.	.
16G\	.	.
16B-\	16b-\L 16gg	.
16E-\	16a-\ 16ff	.
16B-\JJ)	16g\JJ) 16ee-	.
=102	=102	=102
(16BB-\LL	16f\LL 16dd	.
16B-\	16g\JJ 16ee-	.
16F\	4a-\ 4ff	.
16B-\	.	.
16BB-\	.	.
16B-\JJ)	.	.
=103	=103	=103
(16BB-\LL	(8.f\L 8.a-	.
16B-\	.	.
16F\	.	.
16B-\	16a-\L 16ff	.
16BB-\	16g\ 16ee-	.
16B-\JJ)	16f\JJ) 16dd	.
=104	=104	=104
(16E-\LL	16g\LL 16ee-	.
16B-\	16b-\JJ 16ff	.
16G\	4ee-\ 4gg	.
16B-\	.	.
16E-\	.	.
16B-\JJ)	.	.
!!LO:LB:g=original
=105	=105	=105
*^	*	*
4E-/	(>16E-\LL	8.g\L 8.b-	.
.	16B-\	.	.
.	16G\	.	.
.	16B-\JJ)	16b-\L 16gg	.
(16D/LL	8ryy	16bn\ 16ff	.
16C/JJ)	.	16cc\JJ 16ee-	.
=106	=106	=106	=106
16AA-/LL	4AA-\	(16dd\LL	.
(<16F/	.	16cc\JJ)	.
16C/	.	(8dd\L 8ddd	.
16F/JJ)	.	.	.
(16AAn/LL	8AAn\	8cc\J) 8ccc	.
16C/JJ) 16E- 16G-X	.	.	.
=107	=107	=107	=107
4BB-/	(>16BB-\LL	(32ccc\LLL	.
.	.	32bb-\	.
.	16G\	32gg\	.
.	.	32ee-\JJJ	.
.	16E-\	8b-\L)	.
.	16G\JJ)	.	.
8BB-/	(>16BB-\LL	8a-\J 8dd	.
.	16F\JJ)	.	.
*v	*v	*	*
=108	=108	=108
*	*^	*
16E-\	(<32ff/KLL	8g\	.
.	16ee-/JJ)	.	.
16r	.	.	.
.	32r	.	.
8E-\ 8G 8B-	8g/ 8ee-/	8ryy	.
8r	8r	8ryy	.
*	*v	*v	*
=109:|!	=109:|!	=109:|!
*>F	*>F	*
!	!	!LO:DY:rj
16.GG/LL 16.G	16.g'\LL 16.bn 16.gg	f
32GG/JJk 32G	32g'\JJk 32b 32gg	.
8GG\L 8G\	8g'\L 8b 8gg	.
8BBn\J 8Bn\	8g'\J 8dd	.
!!LO:LB:g=original
=110	=110	=110
*	*^	*
8C\L 8c	8cc/L 8ee-	8g\L	.
!	!	!	!
8BB-X\J 8B-X	(24dd/L	8g\J	.
.	24ee-/	.	.
.	24dd/JJ	.	.
8AA-\ 8A-	8cc/)	8a-\	.
*	*v	*v	*
=111	=111	=111
!LO:TX:t=P:problem:mixed beam	!	!LO:DY:rj
16FF/LL	16a-'\LL 16dd	p
16F\JJ	16a-'\J 16dd	.
8F\L	8a-'\ 8dd	.
8F#X\J	8an'\J 8dd	.
=112	=112	=112
!LO:TX:t=P:problem:mixed beam	!	!
8G\L	8bn\L 8dd|	.
!	!LO:TUP:a	!
8GG/J	(24cc\L 24ee-	.
.	24dd\ 24ff	.
.	24cc\JJ 24ee-	.
8G\	8b\ 8dd)	.
=113	=113	=113
!	!	!LO:DY:rj
16.GG/LL 16.G	16.g'\LL 16.bn 16.gg	f
32GG/JJk 32G	32g\JJk 32b 32gg	.
8GG\L 8G	8g\L 8b 8gg	.
8BBn\J 8Bn	8g\J 8dd	.
!!LO:LB:g=original
=114	=114	=114
*	*^	*
8C\L 8c	8cc/L 8ee-	8g\L	.
!	!	!	!
8BB-\J 8B-X	(24dd/L	8g\J	.
.	24ee-/	.	.
.	24dd/JJ	.	.
8AA-\ 8A-	8cc/)	8a-\	.
*	*v	*v	*
=115	=115	=115
!LO:TX:t=P:problem:mixed beam	!	!LO:DY:rj
16FF/LL	16a-\LL 16dd	p
16F\JJ	16a-\J 16dd	.
8F\L	8a-\ 8dd	.
8F#X\J	8an\J 8dd	.
=116	=116	=116
!	!	!
8G\	8bn\ 8dd	.
!	!	!LO:HP:t=cresc&colon;
4GG/	4g^<\ 4b 4gg	<
=117	=117	=117
8G\	8g\ 8bn 8dd	.
4GG/	4dd^<\ 4gg 4bbn	.
=118	=118	=118
8G\	8bn\ 8dd 8gg	.
4GG/	4gg^<\ 4bbn 4ddd	.
!!LO:LB:g=original
=119	=119	=119
8G\	8dd\ 8gg 8bbn	.
8GG/	8gg\ 8bb 8fff	.
!	!	!LO:DY:rj
8G\	8g\ 8gg	f
=120	=120	=120
16A-X\LL	16a-X\LL 16aa-X	.
16G\	16g\ 16gg	.
16F#X\	16f#X\ 16ff#X	.
16G\	16g\ 16gg	.
16A-\	16a-\ 16aa-	.
16G\JJ	16g\JJ 16gg	.
=121	=121	=121
16F#X\LL	16f#X\LL 16ff#X	.
16G\	16g\ 16gg	.
16A-\	16a-\ 16aa-	.
16G\	16g\ 16gg	.
16F#\	16f#\ 16ff#	.
16G\JJ	16g\JJ 16gg	.
=122	=122	=122
16An\LL	16an\LL 16aan	.
16G\	16g\ 16gg	.
16F#X\	16f#X\ 16ff#X	.
16G\	16g\ 16gg	.
16A\	16a\ 16aa	.
16G\JJ	16g\JJ 16gg	.
=123	=123	=123
16F#X\LL	16f#X\LL 16ff#X	.
16G\	16g\ 16gg	.
16An\	16an\ 16aan	.
16G\	16g\ 16gg	.
16Fn\JJ	16fn\JJ 16ffn	.
!	!LO:TX:t=P:problem:znak segno na kresce	!
!	!LO:TX:t=[segno]	!
16D\	16d\ 16dd	.
!!LO:PB:g=original
=124||	=124||	=124||
*>G	*>G	*
*k[]	*k[]	*
*	*	*
8CC/ 8C	16.r	.
!	!LO:N:vis=16	!LO:DY:rj
.	32G/ 32c 32e	p
8r	8G/L 8c 8e	.
8CC/ 8C	8F#X/J 8A 8c 8d#X	.
=125	=125	=125
*rep	*rep	*
8CC/ 8C	16.r	.
!	!LO:N:vis=16	!
.	32G/ 32c 32e	.
8r	8G/L 8c 8e	.
8CC/ 8C	8F#X/J 8A 8c 8d#X	.
*Xrep	*Xrep	*
=126	=126	=126
8CC/ 8C	16.r	.
!	!LO:N:vis=16	!
.	32G/ 32c 32e	.
8r	8G/ 8c 8e	.
8C\ 8E 8G 8c	(16g/LL	.
.	16cc/JJ)	.
=127	=127	=127
!	!LO:TX:t=P:problem:klamra łukowa	!
!	!LO:TUP:a	!
8G\ 8B 8d	24dd\LL	.
.	24ee\	.
.	24ff\JJ	.
4c\ 4e	4ee\	.
=128	=128	=128
8GG/ 8G	16.B/LL 16.d	.
.	32B/JJk 32d	.
8r	8B/L 8d	.
8GG/ 8G	8A#X^/J 8c#X 8e	.
!!LO:LB:g=original
=129	=129	=129
8GG\ 8G	16.B/LL 16.d	.
.	32B/JJk 32d	.
8r	8B/L 8d	.
8GG\ 8G	8A#X'/J 8c#X' 8e'	.
=130	=130	=130
8GG\ 8G	16.B/LL 16.d	.
.	32B/JJk 32d	.
8r	8B/ 8d	.
8G\ 8B	(16d/LL	.
.	16g/JJ)	.
=131	=131	=131
!	!	!
!	!LO:TUP:b	!
8D\ 8F#X 8c	(24b/LL	.
.	24a/	.
.	24dd/JJ	.
4G\ 4B	4g/)	.
=132	=132	=132
*	*Xtuplet	*
!	!	!LO:DY:rj
8GG/ 8G	24f#X/LL	f
.	24g/	.
.	24b/JJ	.
8G\L 8d 8f	8b\L 8dd	.
8G\J 8d 8f	8dd\J 8ffn	.
=133	=133	=133
8C/	(16ff\LL 16aa	.
.	16ee\JJ 16gg	.
8G\ 8c 8e	8cc\) 8ee	.
8C\ 8G 8c	8cc\ 8ee 8ccc	.
!!LO:LB:g=original
=134	=134	=134
!	!	!LO:DY:rj
8GG\ 8G	(16ee\LL 16eee	p
.	16dd\JJ) 16ddd	.
8G\L 8B 8f	8g\L 8gg	.
8G\J 8B 8f	8dd\J 8ddd	.
=135	=135	=135
8C/	(16ff\LL 16fff	.
.	16ee\JJ 16eee)	.
8G\L 8c 8e	4cc\ 4ccc	.
8G\J 8c 8e	.	.
=136	=136	=136
!	!	!LO:DY:rj
8GG/ 8G	24f#X/LL	f
.	24g/	.
.	24b/JJ	.
8G\L 8d 8f	8b\L 8dd	.
8G\J 8d 8f	8dd\J 8ffn	.
=137	=137	=137
8C\ 8c	(16ff\LL 16aa	.
.	16ee\JJ) 16gg	.
8G\ 8c 8e	8cc\L 8ee	.
8F#X\ 8A 8c 8e-X	8cc^<\J 8ee-X 8ccc	.
=138	=138	=138
*tremolo	*	*
8G\L 8c 8en	24cc'\LL 24een 24gg	.
.	(24eee\	.
.	24ddd\JJ)	.
8G\ 8c 8e	8ccc\L	.
8G\J 8c 8e	8ee\J	.
*Xtremolo	*	*
!!LO:LB:g=original
=139	=139	=139
.	(8qgg/	.
8G\ 8B 8f	16.ff\LL)	.
!	!	!
.	32dd'\JJk	.
8c\ 8e	8cc'\	.
8r	8r	.
=140||	=140||	=140||
*k[f#]	*k[f#]	*
8GG\L 8G	8b'^<\L 8dd 8gg	f
8BB\ 8B	8b'^<\ 8dd 8ff#	.
8C\J 8c	8g'^<\J 8cc 8ee	.
=141	=141	=141
8.D\L 8.d	16.b\LL 16.dd	.
.	32cc\K 32ee	.
.	16b\ 16dd	.
16F#\K	16a\J 16cc	.
8G\J	8g\J 8b	.
=142	=142	=142
.	(8qbb/	.
8DD/ 8D	16.aa\LL)	.
.	32dd\JJk	.
8D\ 8A 8cL	8ff#\L	.
8D\ 8A 8cJ	8aa\J	.
=143	=143	=143
8GG/	(16ccc\LL	.
.	16bb\JJ)	.
4D\ 4G 4B	4gg\	.
!!LO:LB:g=original
=144	=144	=144
8GG\L 8G	8b\L 8dd 8gg	.
8BB\ 8B	8b\ 8dd 8ff#	.
8C\J 8c	8g\J 8cc 8ee	.
=145	=145	=145
8.D\L 8.d	16.b\LL 16.dd	.
.	32cc\K 32ee	.
.	16b\ 16dd	.
16F#\KJ	16a\JJ 16cc	.
8G\	8g/ 8b/	.
=146	=146	=146
*^	*	*
4F#/	16.F#\LL	16dd#X/LL	.
.	.	16f#/JJ	.
.	32B\JJK 32d#X	.	.
.	8B\ 8d#L	8b/L	.
8ryy	8B\J 8d#	8dd#/J	.
*v	*v	*	*
=147	=147	=147
!	!	!
16F#\ 16A#X 16e	24cc#X\LL|	.
.	(24ee\	.
16r	.	.
.	24dd#X\JJ	.
4B\ 4d#X	4b\)	.
=148	=148	=148
!LO:TX:t=P:problem:trzeci łuk	!	!
!LO:S:s=2:note:problem:note-level slur	!	!
!LO:S:s=3:note:problem:note-level slur	!	!
(8F#\L (8A#X (8e	24cc#X\LL|	.
.	(24ee\	.
.	24dd#X\JJ	.
8B\)) 8d#X)	8b\L)	.
8B'\J 8d#	8ff#t\J	.
!!LO:LB:g=original
=149	=149	=149
16F#\ 16A#X 16e	24cc#X'\LL	.
.	(24ee\	.
16r	.	.
.	24dd#X\JJ	.
4B\ 4d#X	4b\)	.
=150	=150	=150
!LO:TX:t=P:problem:trzeci łuk	!	!
!LO:S:s=2:note:problem:note-level slur	!	!
!LO:S:s=3:note:problem:note-level slur	!	!
(8F#\L (8A#X (8e	24cc#X'\LL	.
.	(24ee\	.
.	24dd#X\JJ	.
8B\)) 8d#X)	8b\L)	.
8B\J 8d#	8ff#t\J	.
=151	=151	=151
16F#\ 16A#X 16e	24cc#X'\LL	.
.	(24ee\	.
16r	.	.
.	24dd#X\JJ	.
4B\ 4d#X	4b\)	.
=152	=152	=152
*^	*	*
4.D#X/	8D#\L	24b'\LL	.
.	.	(24aa\	.
.	.	24gg\JJ	.
.	8F#\ 8A 8B	8ff#\L)	.
.	8F#\J 8A 8B	8b'^<\J 8bb	.
=153	=153	=153	=153
4.E/	8E\L	24b'\LL	.
.	.	(24gg\	.
.	.	24ff#\JJ	.
.	8G\ 8B	8ee\L)	.
.	8G\J 8B	8b'^<\J 8bb	.
=154	=154	=154	=154
4.C#X/	8C#\L	24b'\LL	.
.	.	(24gg\	.
.	.	24ff#\JJ	.
.	8E\ 8G 8A	8ee\L)	.
.	8E\J 8G 8A	8a'^<\J 8aa	.
!!LO:PB:g=original
=155	=155	=155	=155
4.D/	8D\L	24a'\LL	.
.	.	(24ff#\	.
.	.	24ee\JJ	.
.	8F#\ 8A	8dd\L)	.
.	8F#\J 8A	8dd'^<\J 8ddd	.
*v	*v	*	*
=156	=156	=156
8DD/ 8D	16cc\LL	.
.	16dd\	.
8D\L 8F# 8A 8c	16ee\	.
.	16ff#\	.
8D\J 8F# 8A 8c	16gg\	.
.	16aa\JJ	.
=157	=157	=157
8GG/	16bb\LL	.
.	16ccc\JJ	.
8D\L 8G 8B	8ddd\L	.
8D\J 8G 8B	8gg\J	.
=158	=158	=158
8DD/ 8D	16aa\LL	.
.	16bb\JJ	.
8D\L 8A 8c	8ccc\L	.
8D\J 8A 8c	8ff#\J	.
=159	=159	=159
8GG/	(16aa\LL	.
.	16gg\JJ)	.
!	!LO:TX:t=P:problem:klamra łukowa	!
8D\L 8G 8B	24gg\LL	.
.	24ff#\	.
.	24ee\J	.
8D\J 8G 8B	8dd'\J	.
=160	=160	=160
8DD/ 8D	16cc\LL	.
.	16dd\	.
8D\L 8F# 8A 8c	16ee\	.
.	16ff#\	.
8D\J 8F# 8A 8c	16gg\	.
.	16aa\JJ	.
!!LO:LB:g=original
=161	=161	=161
8GG/	16bb\LL	.
.	16ccc\JJ	.
8D\L 8G 8B	8ddd\L	.
8D\J 8G 8B	8gg\J	.
=162	=162	=162
(8CC/L 8C	((8ccc^\L 8eee	.
16DD/Jk) 16D	16bb\Jk)) 16ddd	.
16r	16r	.
8D\ 8A 8c	8ff#t\	.
.	(16qqee/LL	.
.	16qqff#/JJ)	.
=163	=163	=163
8G\ 8B	8gg\	.
4G\ 4B	4g/	.
=164||	=164||	=164||
!	!LO:TX:a:t=Coda.	!
8E\ 8G 8B	8g\ 8b 8gg	<
4E\ 4G 4B	8g/	.
.	(8gg\	[[
=165	=165	=165
*^	*	*
4.C#X/	8C#\L	16.aa\LL)	.
.	.	32gg\JJk	.
.	8E\ 8G 8A	8.ff#\L	.
.	8E\J 8G 8A	.	.
.	.	16ee\Jk	.
=166	=166	=166	=166
4.Cn/	8Cn\L	16.dd\LL	.
.	.	32dd\JJk	.
.	8D\ 8F# 8A	8.ee\L	.
.	8D\J 8F# 8A	.	.
.	.	16ff#\Jk	.
!!LO:LB:g=original
=167	=167	=167	=167
4.BB/	8BB\L	16aa\LL	.
.	.	16gg\	.
.	8D\ 8G	16ff#\	.
.	.	16gg\	.
.	8D\J 8G	16aa\	.
.	.	16gg\JJ	.
=168	=168	=168	=168
4.C/	8C\L	16ff#\LL	.
.	.	16ee\	.
.	8E\ 8A	16dd#X\	.
.	.	16ee\	.
.	8E\J 8A	16cc\	.
.	.	16a\JJ	.
=169	=169	=169	=169
4.D/	8D\L	16ee\LL	.
.	.	16dd\	.
.	8G\ 8B	16cc#X\	.
.	.	16dd\	.
.	8G\J 8B	16b\	.
.	.	16g\JJ	.
=170	=170	=170	=170
4D/	8D\L	16ee\LL	.
.	.	16dd\	.
.	8F#\J 8A	16cc#X\	.
.	.	16dd\	.
8D\ 8F# 8A	8ryy	16ccn\	.
.	.	16a\JJ	.
*v	*v	*	*
=171	=171	=171
!	!LO:TX:b:t=1.	!
4.r	4.r	.
*clefG2	*	*
=172	=172	=172
!	!	!LO:DY:rj
8g/L 8b 8dd	16.gg\LL	p
.	32bb\JJk	.
8g/ 8b 8dd	8ddd\L	.
8g/J 8a#X 8cc#X 8ee	8eee^<\J	.
!!LO:LB:g=original
=173	=173	=173
8g/L 8b 8dd	16.ddd\LL	.
.	32bb\JJk	.
8g/ 8b 8dd	8ddd\L	.
8g/J 8a#X 8cc#X 8ee	8eee^<\J	.
=174	=174	=174
*rep	*	*
8g/L 8b 8dd	16.ddd\LL	.
.	32bb\JJk	.
8g/ 8b 8dd	8ddd\L	.
8g/J 8a#X 8cc#X 8ee	8eee^<\J	.
*Xrep	*	*
=175	=175	=175
8g/L 8b 8dd	(16ddd\LL	.
.	16bb\JJ)	.
8g/ 8b 8dd	16gg'\LL	.
.	16bb'\JJ	.
.	(8qbb/	.
8d/J 8f# 8a 8ccn	16aa\LL)	.
.	16dd'\JJ	.
=176	=176	=176
8g/ 8b	16.gg\LL	.
.	32bb\JJk	.
8g/L 8b 8dd	8ddd\L	.
8g/J 8a#X 8cc#X 8ee	8eee^<\J	.
=177	=177	=177
8g/L 8b 8dd	16.ddd\LL	.
.	32bb\JJk	.
8g/ 8b 8dd	8ddd\L	.
8g/J 8a#X 8cc#X 8ee	8eee^<\J	.
=178	=178	=178
*rep	*rep	*
8g\L 8b 8dd	16.ddd\LL	.
.	32bb\JJk	.
8g\ 8b 8dd	8ddd\L	.
8g\J 8a#X 8cc#X 8ee	8eee^<\J	.
*Xrep	*Xrep	*
!!LO:LB:g=original
=179	=179	=179
8g/L 8b 8dd	(16ddd\LL	.
.	16bb\JJ)	.
8g/ 8b 8dd	16gg'\LL	.
.	16bb'\JJ	.
.	(8qbb/	.
8d/J 8f# 8a 8ccn	16aa\LL)	.
.	16dd'\JJ	.
=180	=180	=180
16g/ 16b	16gg\	.
*clefF4	*	*
16G\LL	16g/LL 16b	<
16F#X\	16a/ 16cc	.
16Fn\	16b/ 16dd	.
16E\	16cc/ 16ee	.
16D\JJ	16a/JJ 16ff#	[[
=181	=181	=181
!	!	!LO:DY:rj
8GG\L 8G	8g\L 8b 8gg	f
8BB\ 8B	8b\ 8dd 8ff#	.
8C\J 8c	8g\J 8cc 8ee	.
=182	=182	=182
8.D\L 8.d	16.b\LL 16.dd	.
.	32cc\K 32ee	.
.	16b\ 16dd	.
16F#\JK	16a\JJ 16cc	.
8G\	8g/ 8b	.
=183	=183	=183
16.CC/LL 16.C	16.g\LL 16.cc 16.ee	.
32CC/JJk 32C	32g\JJk 32cc 32ee	.
8DD/ 8D	8g\ 8b 8dd	.
8D\ 8A 8c	8ff#t\	.
.	(32qqee/LLL	.
.	32qqff#/JJJ)	.
=184	=184	=184
8G\L 8B	16gg\LL	.
.	16dd\	.
8D\ 8A 8d	16ff#'\ 16aa'	.
.	16dd\J	.
8G\J 8B 8d	8gg\J 8bb	.
=185	=185	=185
8BBB/L 8BB	8b\L 8dd#X 8ff# 8bb	.
8BBB/ 8BB	8b\ 8dd# 8ff# 8bb	.
8DD#X/J 8D#X	8b\J 8ff# 8aa	.
=186	=186	=186
8EE/ 8E	16.gg\LL	.
.	32aa\K	.
8E\L 8G 8B	16.gg\	.
.	32ff#\JK	.
8E\J 8G 8B	8ee\J	.
=187	=187	=187
8C/L 8CC/	24aa\LL	.
.	24bb\	.
.	24ccc\JJ	.
8D/J 8DD/	8dd\L	.
8D\ 8A 8c	8ff#t\J	.
.	(32qqee/LLL	.
.	32qqff#/JJJ)	.
=188	=188	=188
8G\ 8B	8gg\	.
8GG/ 8G/	8gg\ 8bb 8ggg	.
8r	8r	.
==	==	==
*-	*-	*-
!!!system-decoration: {(s1,s2)}
!!!RDF**kern: > = above
!!!RDF**kern: < = below
!!!RDF**kern: | = vertical stroke
!!!EED: Andrzej Borzym
!!!EST: 2021-06-12
!!!ENC: Marcin Jachim
!!!END: 2021-06-10
